icons/organization-17.svg

<svg width="16" height="17" viewBox="0 0 16 17" fill="none" xmlns="http://www.w3.org/2000/svg">
<path fill-rule="evenodd" clip-rule="evenodd" d="M3.12499 12.8538C3.12499 12.9574 3.20894 13.0413 3.31249 13.0413H4.99998V12.1038C4.99998 11.7932 5.25182 11.5413 5.56248 11.5413H7.43747C7.74812 11.5413 7.99996 11.7932 7.99996 12.1038V13.0413H9.68745C9.79103 13.0413 9.87495 12.9574 9.87495 12.8538V3.47887C9.87495 3.37532 9.79103 3.29137 9.68745 3.29137H3.31249C3.20894 3.29137 3.12499 3.37532 3.12499 3.47887V12.8538ZM3.31249 14.1663C2.58762 14.1663 2 13.5787 2 12.8538V3.47887C2 2.754 2.58762 2.16638 3.31249 2.16638H9.68745C10.4123 2.16638 10.9999 2.754 10.9999 3.47887V12.8538C10.9999 12.9175 10.9954 12.9801 10.9867 13.0414H12.6874C12.791 13.0414 12.8749 12.9575 12.8749 12.8539V8.38029C12.8749 8.3176 12.8436 8.25906 12.7915 8.22428L12.0004 7.69694C11.7419 7.52461 11.6721 7.17538 11.8444 6.91689C12.0167 6.65841 12.366 6.58856 12.6244 6.76088L13.4155 7.28823C13.7806 7.53165 13.9999 7.94146 13.9999 8.38029V12.8539C13.9999 13.5788 13.4123 14.1664 12.6874 14.1664H10.0625C10.0113 14.1664 9.96173 14.1596 9.91455 14.1467C9.84083 14.1596 9.76493 14.1663 9.68745 14.1663H7.43747C7.12681 14.1663 6.87497 13.9145 6.87497 13.6038V12.6663H6.12497V13.6038C6.12497 13.9145 5.87313 14.1663 5.56248 14.1663H3.31249ZM4.24999 4.97886C4.24999 4.66821 4.50183 4.41637 4.81248 4.41637H5.18748C5.49814 4.41637 5.74998 4.66821 5.74998 4.97886C5.74998 5.28952 5.49814 5.54136 5.18748 5.54136H4.81248C4.50183 5.54136 4.24999 5.28952 4.24999 4.97886ZM4.81248 6.66635C4.50183 6.66635 4.24999 6.91819 4.24999 7.22885C4.24999 7.53951 4.50183 7.79135 4.81248 7.79135H5.18748C5.49814 7.79135 5.74998 7.53951 5.74998 7.22885C5.74998 6.91819 5.49814 6.66635 5.18748 6.66635H4.81248ZM4.24999 9.47884C4.24999 9.16818 4.50183 8.91634 4.81248 8.91634H5.18748C5.49814 8.91634 5.74998 9.16818 5.74998 9.47884C5.74998 9.78948 5.49814 10.0413 5.18748 10.0413H4.81248C4.50183 10.0413 4.24999 9.78948 4.24999 9.47884ZM7.81246 8.91634C7.50181 8.91634 7.24997 9.16818 7.24997 9.47884C7.24997 9.78948 7.50181 10.0413 7.81246 10.0413H8.18746C8.49812 10.0413 8.74996 9.78948 8.74996 9.47884C8.74996 9.16818 8.49812 8.91634 8.18746 8.91634H7.81246ZM7.24997 7.22885C7.24997 6.91819 7.50181 6.66635 7.81246 6.66635H8.18746C8.49812 6.66635 8.74996 6.91819 8.74996 7.22885C8.74996 7.53951 8.49812 7.79135 8.18746 7.79135H7.81246C7.50181 7.79135 7.24997 7.53951 7.24997 7.22885ZM7.81246 4.41637C7.50181 4.41637 7.24997 4.66821 7.24997 4.97886C7.24997 5.28952 7.50181 5.54136 7.81246 5.54136H8.18746C8.49812 5.54136 8.74996 5.28952 8.74996 4.97886C8.74996 4.66821 8.49812 4.41637 8.18746 4.41637H7.81246Z" fill="#272431"/>
</svg>

<svg xmlns="http://www.w3.org/2000/svg" width="16" height="17" viewBox="0 0 16 17"><path fill-rule="evenodd" d="M3.125 12.854c0 .103.084.187.187.187H5v-.937c0-.31.252-.563.562-.563h1.875c.311 0 .563.252.563.563v.937h1.687a.187.187 0 00.188-.187V3.479a.187.187 0 00-.188-.188H3.312a.188.188 0 00-.187.188v9.375zm.187 1.312A1.312 1.312 0 012 12.854V3.479c0-.725.588-1.313 1.312-1.313h6.375c.725 0 1.313.588 1.313 1.313v9.375c0 .064-.005.126-.013.187h1.7a.187.187 0 00.188-.187V8.38a.188.188 0 00-.084-.156l-.79-.527a.563.563 0 01.623-.936l.791.527c.366.244.585.653.585 1.092v4.474c0 .725-.588 1.312-1.313 1.312h-2.624a.56.56 0 01-.148-.02c-.074.014-.15.02-.228.02h-2.25a.562.562 0 01-.562-.562v-.938h-.75v.938c0 .31-.252.562-.563.562h-2.25zM4.25 4.98c0-.31.252-.563.562-.563h.375a.562.562 0 110 1.125h-.375a.562.562 0 01-.562-.562zm.562 1.687a.562.562 0 000 1.125h.375a.563.563 0 000-1.125h-.375zM4.25 9.48c0-.31.252-.563.562-.563h.375a.563.563 0 010 1.125h-.375a.562.562 0 01-.562-.562zm3.562-.563a.562.562 0 000 1.125h.375a.562.562 0 100-1.125h-.375zM7.25 7.23c0-.31.252-.563.562-.563h.375a.563.563 0 010 1.125h-.375a.562.562 0 01-.562-.562zm.562-2.813a.562.562 0 000 1.125h.375a.563.563 0 000-1.125h-.375z"/></svg>
